build/svg/cmd/lc_numberformatstandard.svg

<?xml version="1.0" encoding="UTF-8" standalone="no"?>
<svg
   xmlns:dc="http://purl.org/dc/elements/1.1/"
   xmlns:cc="http://creativecommons.org/ns#"
   xmlns:rdf="http://www.w3.org/1999/02/22-rdf-syntax-ns#"
   xmlns:svg="http://www.w3.org/2000/svg"
   xmlns="http://www.w3.org/2000/svg"
   xmlns:sodipodi="http://sodipodi.sourceforge.net/DTD/sodipodi-0.dtd"
   xmlns:inkscape="http://www.inkscape.org/namespaces/inkscape"
   viewBox="0 0 24 24"
   version="1.1"
   id="svg4"
   sodipodi:docname="lc_numberformatstandard.svg"
   inkscape:export-filename="/home/jupiter007/Libreoffice yaru theme fullcolor/build/cmd/lc_numberformatstandard.png"
   inkscape:export-xdpi="95"
   inkscape:export-ydpi="95"
   inkscape:version="0.92.5 (2060ec1f9f, 2020-04-08)">
  <metadata
     id="metadata10">
    <rdf:RDF>
      <cc:Work
         rdf:about="">
        <dc:format>image/svg+xml</dc:format>
        <dc:type
           rdf:resource="http://purl.org/dc/dcmitype/StillImage" />
      </cc:Work>
    </rdf:RDF>
  </metadata>
  <defs
     id="defs8" />
  <sodipodi:namedview
     pagecolor="#ffffff"
     bordercolor="#666666"
     borderopacity="1"
     objecttolerance="10"
     gridtolerance="10"
     guidetolerance="10"
     inkscape:pageopacity="0"
     inkscape:pageshadow="2"
     inkscape:window-width="1920"
     inkscape:window-height="1011"
     id="namedview6"
     showgrid="true"
     inkscape:zoom="27.812867"
     inkscape:cx="9.0849089"
     inkscape:cy="15.1138"
     inkscape:window-x="0"
     inkscape:window-y="32"
     inkscape:window-maximized="1"
     inkscape:current-layer="svg4">
    <inkscape:grid
       type="xygrid"
       id="grid815" />
  </sodipodi:namedview>
  <path
     sodipodi:nodetypes="cccscsccccccccscscccccc"
     inkscape:connector-curvature="0"
     id="path4237-1"
     d="m 6.9941159,2.9997083 c -1.2582,0.0145 -2.178891,-0.030604 -2.931641,0.3847656 -0.37637,0.20766 -0.673231,0.5593869 -0.837891,0.9980469 -0.16467,0.43867 -0.224609,0.9595875 -0.224609,1.6171875 V 7.4879894 18.000293 c 0,0.657609 0.0599,1.178576 0.224609,1.617188 0.16468,0.438611 0.461531,0.788523 0.837891,0.996092 0.75272,0.415131 1.673541,0.37165 2.931641,0.386719 h 0.002 10.0058591 0.0039 c 1.25819,-0.0145 2.178891,0.0306 2.931641,-0.384766 0.37637,-0.20766 0.673221,-0.559386 0.837891,-0.998045 0.164539,-0.438671 0.224618,-0.959579 0.224618,-1.617188 V 7.4665054 5.9997083 c 0,-0.6576 -0.0599,-1.1785775 -0.224609,-1.6171875 -0.16468,-0.4386 -0.461531,-0.7885338 -0.837891,-0.9960937 -0.75277,-0.41513 -1.673601,-0.3716388 -2.931691,-0.3867188 h -0.002 -10.0058592 z"
     style="font-style:normal;font-variant:normal;font-weight:normal;font-stretch:normal;font-size:15px;line-height:125%;font-family:Ubuntu;-inkscape-font-specification:Ubuntu;text-align:center;letter-spacing:0px;word-spacing:0px;writing-mode:lr-tb;text-anchor:middle;display:inline;opacity:0.6;fill:#000000;fill-opacity:1;stroke:none;stroke-width:0.99980211" />
  <path
     inkscape:connector-curvature="0"
     id="path1993"
     d="m 11.983344,4.0268931 c -1.556581,0.010796 -5.1099901,-0.011752 -6.6599411,0.038775 -0.461229,0.042668 -1.016188,0.2064194 -1.15534,0.7099668 -0.218994,0.6353464 -0.108414,1.3337872 -0.145796,1.9819243 -0.0078,2.2970846 -0.02297,9.5964298 0.02152,11.8857808 0.0391,0.461929 0.202551,1.012665 0.698756,1.163665 0.632456,0.225082 1.284144,0.12274 1.935974,0.154298 1.4242352,0.0068 4.8505631,0.01102 6.2764201,0.01131 1.704531,3.5e-4 3.408388,-0.005 5.10719,-0.01851 0.511911,-0.01201 1.183699,0.01993 1.584745,-0.405191 0.421097,-0.539783 0.287073,-1.268021 0.322745,-1.903787 0.01187,-2.444324 0.02769,-9.9110966 -0.0219,-12.3567962 C 19.898437,4.8862905 19.777725,4.4253787 19.372578,4.2438556 18.704409,3.9497582 17.946373,4.0758367 17.246657,4.0382829 15.49225,4.0264799 13.737783,4.0257989 11.983344,4.0268931 Z"
     style="opacity:1;vector-effect:none;fill:#ffffff;fill-opacity:1;stroke:none;stroke-width:1;stroke-linecap:round;stroke-linejoin:bevel;stroke-miterlimit:4;stroke-dasharray:none;stroke-dashoffset:0;stroke-opacity:1"
     sodipodi:nodetypes="cccccccsccccccc" />
  <path
     id="path825"
     d="M 15.5,7 C 14.115,7 13,8.115 13,9.5 v 5 c 0,1.385 1.115,2.5 2.5,2.5 1.385,0 2.5,-1.115 2.5,-2.5 v -5 C 18,8.115 16.885,7 15.5,7 Z m 0,1 C 16.331,8 17,8.669 17,9.5 v 5 C 17,15.331 16.331,16 15.5,16 14.669,16 14,15.331 14,14.5 v -5 C 14,8.669 14.669,8 15.5,8 Z"
     style="opacity:1;fill:#4d4d4d;fill-opacity:1;stroke:none;stroke-width:8.77999973;stroke-linejoin:round;stroke-miterlimit:4;stroke-dasharray:none;stroke-opacity:1"
     inkscape:connector-curvature="0"
     sodipodi:nodetypes="ssssssssssssss" />
  <path
     style="color:#000000;font-style:normal;font-variant:normal;font-weight:normal;font-stretch:normal;font-size:medium;line-height:normal;font-family:sans-serif;font-variant-ligatures:normal;font-variant-position:normal;font-variant-caps:normal;font-variant-numeric:normal;font-variant-alternates:normal;font-feature-settings:normal;text-indent:0;text-align:start;text-decoration:none;text-decoration-line:none;text-decoration-style:solid;text-decoration-color:#000000;letter-spacing:normal;word-spacing:normal;text-transform:none;writing-mode:lr-tb;direction:ltr;text-orientation:mixed;dominant-baseline:auto;baseline-shift:baseline;text-anchor:start;white-space:normal;shape-padding:0;clip-rule:nonzero;display:inline;overflow:visible;visibility:visible;opacity:1;isolation:auto;mix-blend-mode:normal;color-interpolation:sRGB;color-interpolation-filters:linearRGB;solid-color:#000000;solid-opacity:1;vector-effect:none;fill:#4d4d4d;fill-opacity:1;fill-rule:nonzero;stroke:none;stroke-width:1px;stroke-linecap:round;stroke-linejoin:round;stroke-miterlimit:4;stroke-dasharray:none;stroke-dashoffset:0;stroke-opacity:1;color-rendering:auto;image-rendering:auto;shape-rendering:auto;text-rendering:auto;enable-background:accumulate"
     d="M 8.5 6 C 8.223 6 8 6.223 8 6.5 L 8 7.0351562 C 7.4129817 7.1091028 6.9375176 7.3105292 6.6015625 7.6464844 C 6.1712114 8.0768355 6.0175781 8.6666667 6.0175781 9.25 C 6.0175781 9.9650202 6.4301622 10.55231 6.8730469 11.0625 C 7.2560981 11.503764 7.6729123 11.882719 8 12.197266 L 8 15.941406 C 7.6659466 15.869153 7.4300055 15.739317 7.2675781 15.609375 C 7.0312604 15.420321 6.9648438 15.277344 6.9648438 15.277344 A 0.50005 0.50005 0 1 0 6.0703125 15.722656 C 6.0703125 15.722656 6.2538958 16.079679 6.6425781 16.390625 C 6.9476657 16.634695 7.4037615 16.866653 8 16.957031 L 8 17.5 C 8 17.777 8.223 18 8.5 18 C 8.777 18 9 17.777 9 17.5 L 9 16.966797 C 9.6027049 16.89655 10.091232 16.695877 10.433594 16.353516 C 10.863945 15.923164 11.017578 15.333333 11.017578 14.75 C 11.017578 14.03498 10.603041 13.44769 10.160156 12.9375 C 9.7644138 12.481616 9.3299385 12.089043 9 11.769531 L 9 8.0488281 C 9.3548187 8.1187506 9.5990844 8.25583 9.7675781 8.390625 C 10.003896 8.5796791 10.070314 8.7226562 10.070312 8.7226562 A 0.50005 0.50005 0 1 0 10.964844 8.2773438 C 10.964844 8.2773438 10.78126 7.9203209 10.392578 7.609375 C 10.081826 7.3607729 9.6128108 7.1275018 9 7.0410156 L 9 6.5 C 9 6.223 8.777 6 8.5 6 z M 8 8.0449219 L 8 10.789062 C 7.8736757 10.661697 7.7419799 10.536507 7.6289062 10.40625 C 7.2492607 9.9689096 7.0175781 9.5349798 7.0175781 9.25 C 7.0175781 8.8333333 7.113945 8.5481645 7.3085938 8.3535156 C 7.4438654 8.218244 7.661216 8.1043197 8 8.0449219 z M 9 13.173828 C 9.1391631 13.312975 9.2823358 13.451005 9.40625 13.59375 C 9.7858956 14.03109 10.017578 14.46502 10.017578 14.75 C 10.017578 15.166667 9.921211 15.451836 9.7265625 15.646484 C 9.5862312 15.786816 9.361595 15.905878 9 15.962891 L 9 13.173828 z "
     id="path836" />
</svg>

<svg xmlns="http://www.w3.org/2000/svg" viewBox="0 0 24 24"><path d="M6.994 3c-1.258.014-2.179-.03-2.932.384a1.88 1.88 0 00-.837.999C3.06 4.82 3 5.343 3 6v12c0 .658.06 1.179.225 1.617.164.44.461.789.837.997.753.415 1.674.371 2.932.386h10.012c1.258-.014 2.179.03 2.932-.384a1.88 1.88 0 00.837-.999c.165-.438.225-.96.225-1.617V6c0-.658-.06-1.179-.225-1.617a1.875 1.875 0 00-.837-.997c-.753-.415-1.674-.371-2.932-.386H6.998z" style="line-height:125%;-inkscape-font-specification:Ubuntu;text-align:center" font-weight="400" font-size="15" font-family="Ubuntu" letter-spacing="0" word-spacing="0" text-anchor="middle" opacity=".6"/><path d="M11.983 4.027c-1.556.01-5.11-.012-6.66.039-.46.042-1.016.206-1.155.71-.219.635-.108 1.333-.146 1.982-.008 2.297-.023 9.596.022 11.885.039.462.202 1.013.699 1.164.632.225 1.284.123 1.936.154 1.424.007 4.85.011 6.276.012 1.704 0 3.408-.005 5.107-.019.512-.012 1.184.02 1.585-.405.421-.54.287-1.268.323-1.904.011-2.444.027-9.911-.022-12.357-.05-.402-.17-.863-.575-1.044-.669-.294-1.427-.168-2.126-.206a715.985 715.985 0 00-5.264-.011z" fill="#fff"/><path d="M15.5 7A2.495 2.495 0 0013 9.5v5c0 1.385 1.115 2.5 2.5 2.5s2.5-1.115 2.5-2.5v-5C18 8.115 16.885 7 15.5 7zm0 1c.831 0 1.5.669 1.5 1.5v5c0 .831-.669 1.5-1.5 1.5s-1.5-.669-1.5-1.5v-5c0-.831.669-1.5 1.5-1.5z" fill="#4d4d4d"/><path style="line-height:normal;font-variant-ligatures:normal;font-variant-position:normal;font-variant-caps:normal;font-variant-numeric:normal;font-variant-alternates:normal;font-feature-settings:normal;text-indent:0;text-align:start;text-decoration-line:none;text-decoration-style:solid;text-decoration-color:#000;text-transform:none;text-orientation:mixed;white-space:normal;shape-padding:0;isolation:auto;mix-blend-mode:normal;solid-color:#000;solid-opacity:1" d="M8.5 6c-.277 0-.5.223-.5.5v.535c-.587.074-1.062.276-1.398.611-.43.43-.584 1.02-.584 1.604 0 .715.412 1.302.855 1.813.383.44.8.82 1.127 1.134v3.744a1.744 1.744 0 01-.732-.332c-.237-.189-.303-.332-.303-.332a.5.5 0 10-.895.446s.184.357.573.668c.305.244.76.476 1.357.566v.543a.499.499 0 101 0v-.533c.603-.07 1.091-.271 1.434-.613.43-.43.584-1.02.584-1.604 0-.715-.415-1.302-.858-1.813-.396-.455-.83-.848-1.16-1.167V8.049c.355.07.6.207.768.342.236.189.302.332.302.332a.5.5 0 10.895-.446s-.184-.357-.572-.668c-.311-.248-.78-.481-1.393-.568V6.5c0-.277-.223-.5-.5-.5zM8 8.045v2.744c-.126-.127-.258-.252-.371-.383-.38-.437-.611-.871-.611-1.156 0-.417.096-.702.29-.896.136-.136.353-.25.692-.31zm1 5.129c.14.139.282.277.406.42.38.437.612.871.612 1.156 0 .417-.097.702-.291.896-.14.14-.365.26-.727.317v-2.79z" color="#000" font-weight="400" font-family="sans-serif" overflow="visible" fill="#4d4d4d"/></svg>
